X:1
T:Title
%%score { ( 1 3 ) | ( 2 4 ) }
L:1/8
M:3/4
K:Db
V:1 treble nm="Grand Piano"
V:3 treble 
V:2 bass 
V:4 bass 
V:1
 z2 z[Q:1/4=100] F ED | [FA]3 F ED | [FA]4 [DFA]2 | [DGB]3 [DGB] [DFA][A,DF] |[M:3/8] [DFA]3 | %5
 FED |[M:3/4] [FA]3 A =GA | [GB]-[DG-B-] [DGB]B cd | d4 z2 |[M:3/8] [Fd]3 | [Fd][Fc][FB] | %11
[M:3/4] [Gc]3 [GB] [A,FA]>[A,EG] | [A,DF]4 [DFA]2 | [CGA]3 [CE] [CGA]>[CGB] |[M:3/8] [DFA]3 | FFE | %16
[M:3/4] z[K:bass] F, F,[K:treble][A,DF] [DFA][DF_c] | [GB]-[DG-B-] [DGB]B cd | F4 [CE]2 | %19
[M:3/8] D3 | F[FA][EG] |[M:3/4] [CE]3 [EG] [GB][FA] | [DF]3 [Fd] [Fe][Fd] | c3 d c>B | %24
[M:3/8] [CA]3 | [CA][CA]>[CG] |[M:3/4] [DF]3 [Fd] [Fd]>[Ac] | B3 B cB | A3 d [DF]>[CE] | %29
[M:3/8] D3 |] %30
V:2
 z2 z A, G,F, | z D DA, G,F, | z D D2 D,2 | G,3 G, D,D, |[M:3/8] D,3 | A,G,F, | %6
[M:3/4] z[K:treble] D DF _F=F | G,G, G,[G,DG] [G,CG][K:treble][G,B,G] | F2 E2 A,A, | %9
[M:3/8][K:bass] [D,A,]3 | [D,A,][D,A,][D,A,] |[M:3/4] [E,A,]3 [A,,A,] B,,>C, | D,4 D,2 | %13
 A,3 A, A,,>A,, |[M:3/8] D,3 | A,A,G, |[M:3/4] [D,F,]D, D,D, D,D, | G,G, G,[G,DG] [G,CG][G,B,G] | %18
 [A,D]4 [A,,G,]2 |[M:3/8] [D,F,]3 | [D,A,D][A,,A,][A,,A,] |[M:3/4] [A,,A,]3 [A,,A,] [D,A,][D,A,] | %22
 [D,A,]3 [D,A,] [D,A,][D,A,] | [E,A,E]3 [E,A,E] [E,=G,E]>[E,G,D] |[M:3/8] [A,,A,]3 | %25
 [A,,E,][A,,E,]>[A,,A,] |[M:3/4] [D,A,]3 [D,A,] [D,A,]>[F,D] | [G,DG]3 [G,DG] [G,DG][G,DG] | %28
 [A,DF]3 [A,F][K:bass] [A,,A,]>[A,,G,] |[M:3/8] [D,F,]3 |] %30
V:3
 x6 | .A,2 z2 z2 | .A,2 z2 z2 | x6 |[M:3/8] x3 | x3 |[M:3/4] .A,2 z2 z2 | .D2 z2 z2 | %8
 z2 G2 .[EGc]2 |[M:3/8] x3 | x3 |[M:3/4] x6 | x6 | x6 |[M:3/8] x3 | x3 | %16
[M:3/4] D4[K:bass][K:treble] z2 | .D2 z2 z2 | x6 |[M:3/8] x3 | x3 |[M:3/4] x6 | x6 | x6 | %24
[M:3/8] x3 | x3 |[M:3/4] x6 | x6 | x6 |[M:3/8] x3 |] %30
V:4
 x6 | D,4 z2 | D,4 z2 | x6 |[M:3/8] x3 | x3 |[M:3/4] D,4[K:treble] z2 | x5[K:treble] x | A,4 z2 | %9
[M:3/8][K:bass] x3 | x3 |[M:3/4] x6 | x6 | x6 |[M:3/8] x3 | x3 |[M:3/4] x6 | x6 | x6 |[M:3/8] x3 | %20
 x3 |[M:3/4] x6 | x6 | x6 |[M:3/8] x3 | x3 |[M:3/4] x6 | x6 | x4[K:bass] x2 |[M:3/8] x3 |] %30

